X: 33888
T: Red Island Tune
R: polka
M: 2/4
K: Gmajor
|:GG- GA|BA B2|AG- GA|Bd BA|
GG- GA|BA Bc/B/|AA BA|1 G2 G2:|2 G2 Bd||
|:ee/e/ ed|BA B2|AG- GA|Bd Bd|
ee/e/ ed|BA Bc/B/|AA BA|1 G2 Bd:|2 G2 G2||

